X: 10357
T: Don't Touch That Green Linnet
R: jig
M: 6/8
K: Dmajor
D2 F FEF|Add dfa|baf afd|ege fdA|
DFF FEF|A2 d dfa|baf gfe|fdB A2:|
~a3 fdf|~g2 B bge|afd (3Bcd e|dcB A2 f|
afd dfa|bge ~g2 b|afd (3Bcd e|1 fdc d2:|2 fdc dA||
~F2 A fdA|~G2 B gdB|c2 e ~a3|
ba^g a2 f|afd dAF|~G2 B gdB|c2 e age|1 fdc dA:|2 fdc d2||

